X: 96
T:Wearmouth Lasses. BF13.095
T:Yarmouth Lasses,aka. BF13.095
M:6/8
L:1/8
Q:120
C:In hand "B", Yarmouth Lasses,aka
S:BF12,MS,c1850,Lakes,Browne Coll.
R:Jig
O:England
A:Lakes
N:Key signature is given as D major.  Note in modern handwriting
N:"Wearmouth Lasses Lately known as "Yarmouth Lasses" which is probably
N:a
N:mishearing..Handwriting looks like another, perhaps later version of
N:the same hand. the Treble clef has been drawn differently..CGP
Z:vmp.Cherri Graebe.
K:G major
"SEE NOTE"d|gfg dBd|cAcB2G|DGB B2A|Acee2d|!
gfg dBd|cBcB2G|DGB B2d|dcAG2:|!
|:z|DGBB2A|"A added"Ace e2d|DGB B2A|Acee2d|!
gfg dBd|cAcB2G|DGB B2d|dcAG2:|]
